src/img/logos/whatsapp.svg

<svg width="150" height="150" viewBox="0 0 150 150" fill="none" xmlns="http://www.w3.org/2000/svg">
<path d="M76.6629 35.9368C56.0223 35.9368 39.2376 52.7219 39.2284 73.3538C39.2254 80.4229 41.202 87.3094 44.9482 93.2669L45.8376 94.6801L42.0579 108.49L56.2203 104.774L57.5848 105.584C63.332 108.992 69.9167 110.801 76.6264 110.801H76.6447C97.267 110.801 114.052 94.0131 114.061 73.3842C114.067 63.385 110.178 53.9828 103.112 46.9106C96.0518 39.8384 86.6558 35.9398 76.6629 35.9368ZM98.6711 89.4384C97.736 92.0668 93.2406 94.4638 91.0812 94.7897C89.1411 95.0791 86.6924 95.2009 83.997 94.3451C82.3614 93.8242 80.266 93.1359 77.5858 91.9755C66.3015 87.1023 58.931 75.7416 58.3675 74.9924C57.8041 74.2401 53.7746 68.8917 53.7746 63.3546C53.7746 57.8174 56.6802 55.0976 57.7096 53.9706C58.7391 52.8437 59.9604 52.5635 60.7096 52.5635C61.4589 52.5635 62.2112 52.5696 62.866 52.6031C63.5574 52.6396 64.4833 52.3412 65.397 54.5341C66.335 56.7879 68.5827 62.3251 68.866 62.8886C69.1492 63.452 69.335 64.1069 68.9604 64.8592C68.5858 65.6084 68.397 66.0775 67.8365 66.7354C67.2731 67.3932 66.6548 68.2004 66.1492 68.706C65.5858 69.2664 65.001 69.8755 65.6558 70.9994C66.3137 72.1263 68.5706 75.8117 71.9147 78.7935C76.2122 82.625 79.8366 83.8129 80.9604 84.3763C82.0843 84.9398 82.7421 84.8423 83.4 84.0931C84.0548 83.3438 86.2112 80.8098 86.9634 79.6859C87.7127 78.5559 88.4619 78.7447 89.4914 79.1194C90.5239 79.494 96.0518 82.2169 97.1756 82.7773C98.2995 83.3438 99.0487 83.621 99.332 84.0931C99.6152 84.5652 99.6091 86.8129 98.6711 89.4384ZM75 0C33.5817 0 0 33.5733 0 74.9985C0 116.421 33.5787 150 75 150C116.421 150 150 116.421 150 74.9985C150 33.5733 116.421 0 75 0ZM76.6477 118.403H76.6294C69.0944 118.403 61.6904 116.512 55.1147 112.924L31.2518 119.186L37.6386 95.8588C33.7005 89.0302 31.6264 81.2849 31.6294 73.3507C31.6386 48.5279 51.8345 28.3346 76.6477 28.3346C88.6873 28.3376 99.9929 33.0281 108.49 41.5349C116.991 50.0447 121.672 61.3535 121.666 73.3842C121.654 98.2071 101.461 118.403 76.6477 118.403Z" fill="black"/>
</svg>

<?xml version="1.0" encoding="utf-8"?>
<!-- Generator: Adobe Illustrator 16.0.2, SVG Export Plug-In . SVG Version: 6.00 Build 0)  -->
<!DOCTYPE svg PUBLIC "-//W3C//DTD SVG 1.1//EN" "http://www.w3.org/Graphics/SVG/1.1/DTD/svg11.dtd">
<svg version="1.1" id="Layer_1" xmlns="http://www.w3.org/2000/svg" xmlns:xlink="http://www.w3.org/1999/xlink" x="0px" y="0px"
	 width="150px" height="150px" viewBox="0 0 150 150" enable-background="new 0 0 150 150" xml:space="preserve">
<path fill="#EBE4E9" d="M76.663,35.937c-20.641,0-37.425,16.785-37.435,37.417c-0.003,7.069,1.974,13.956,5.72,19.914l0.889,1.412
	l-3.779,13.811l14.162-3.717l1.365,0.811c5.747,3.408,12.332,5.217,19.042,5.217h0.018c20.623,0,37.407-16.787,37.416-37.417
	c0.006-10-3.883-19.401-10.949-26.474C96.052,39.838,86.656,35.94,76.663,35.937z M98.671,89.438
	c-0.935,2.628-5.431,5.025-7.59,5.351c-1.94,0.29-4.389,0.412-7.084-0.443c-1.636-0.521-3.731-1.21-6.411-2.37
	c-11.285-4.873-18.655-16.233-19.218-16.983c-0.563-0.752-4.593-6.101-4.593-11.638s2.906-8.257,3.935-9.384
	c1.03-1.127,2.251-1.407,3-1.407c0.75,0,1.502,0.006,2.157,0.04c0.691,0.037,1.617-0.262,2.531,1.931
	c0.938,2.254,3.186,7.791,3.469,8.354c0.283,0.563,0.469,1.218,0.094,1.971c-0.375,0.749-0.563,1.218-1.124,1.876
	c-0.563,0.658-1.182,1.465-1.687,1.971c-0.563,0.561-1.148,1.169-0.494,2.293c0.658,1.127,2.915,4.812,6.259,7.793
	c4.298,3.832,7.921,5.02,9.046,5.584c1.123,0.563,1.781,0.465,2.439-0.283c0.654-0.75,2.811-3.284,3.563-4.408
	c0.75-1.13,1.499-0.941,2.528-0.566c1.032,0.375,6.561,3.098,7.685,3.658c1.123,0.566,1.873,0.844,2.156,1.316
	C99.615,84.565,99.609,86.813,98.671,89.438z M75,0C33.582,0,0,33.573,0,74.999C0,116.421,33.579,150,75,150
	c41.421,0,75-33.579,75-75.001C150,33.573,116.421,0,75,0z M76.647,118.402h-0.019c-7.535,0-14.938-1.891-21.514-5.479
	l-23.863,6.262l6.387-23.326c-3.938-6.829-6.012-14.574-6.009-22.509c0.009-24.823,20.205-45.016,45.018-45.016
	c12.04,0.003,23.345,4.694,31.843,13.201c8.501,8.51,13.182,19.818,13.176,31.849C121.654,98.207,101.461,118.402,76.647,118.402z"
	/>
</svg>
